X:1
T:Goodnight beloved - Pinsuti
T:James Gibb editions
T:#
%%score [ 1 2 3 4 ]
L:1/8
Q:1/4=108
M:4/4
K:C
V:1 treble nm="Soprano"
V:2 treble nm="Alto"
V:3 treble-8 nm="Tenor"
V:4 bass nm="Bass"
V:1
"^Ciro Pinsuti \n(1829-1888)""^Goodnight, goodnight, beloved""^H. W. Longfellow\n(1807-82)" E2 | %1
w: Good|
 E2 z E F2 E2 | A4 G2 G2 | A2 B2 c2 E2 | (G4 F) z F2 |[M:4/4] d3 B G2 G2 | (G2 e2) c2 A2 | %7
w: night, good night, be-|lov- ed! I|come to watch o'er|thee! * good|night, good night, be-|lov\- * ed! I|
 G3 A D2 G2 | G4- G z F2 | E3 F D7/2 C/ | C4- C z E>^F | x8 | x8 | G4 G2 G>A | B4 B z c2 | %15
w: come to watch o'er|thee, * I|come to watch o'er|thee! * To be|||near thee, to be|near thee, a-|
 B2 G2 ^F2 B2 | B4 z2 G>A | B4 B z B>c | d4 d z e2 | d2 B2 A2 d2 | d4- d z c2 | (c4 B) z A2 | %22
w: lone is peace for|me, to be|near thee, to be|near thee, a\-|lone is peace for|me! * Good|night, * be-|
 A4 G z"^rall."[Q:1/4=106] _A2 |[Q:1/4=102] G2[Q:1/4=98] _A2[Q:1/4=95] G2[Q:1/4=91] A2 | %24
w: lov- ed! I|come to watch o'er|
[Q:1/4=90] G6"^a tempo"[Q:1/4=108] E2 | E2 z E F2 E2 | A4 G2 G2 | A2 B2 c2 E2 | (G4 F) z F2 | %29
w: thee! Good|night, good night, be-|lov- ed! I|come to watch o'er|thee! * good|
 d3 B G2 G2 | (G2 e2) c2 A2 | G3 A D2 G2 | G4- G z F2 | E3 F D7/2 C/ | C4- C z E2 | c3 B A2 B2 | %36
w: night, good night, be-|lov\- * ed! I|come to watch o'er|thee! * I|come to watch o'er|thee! * Thine|eyes are stars of|
 A4 ^G2 (A>F) | E2 (F>D) C2 B,2 | C4 z4 | z8 | z4 z2 C2 | C3 C _D2 D2 | C4 z4 | z2 _E2 E2 E2 | %44
w: morn- ing, Thy *|lips are * crim- son|flowers,||thy|lips are crim- son|flowers.|Good night, be-|
 _E2 D2 z4 | z2 C2 C2 C2 | B,2- B, z z2"^molto rall." G>G | %47
w: lov- ed!|the wea- ry|hours. * while I|
[Q:1/4=104] G2[Q:1/4=98] G2[Q:1/4=92] G2[Q:1/4=86] G2 | %48
w: count the wea- ry|
[Q:1/4=86][Q:1/4=84][Q:1/4=86][Q:1/4=86][Q:1/4=86] G6"^a tempo"[Q:1/4=108] E2 | E3 E F2 E2 | %50
w: hours. Good|night, good night, be-|
 A4 G2 G2 | A2 B2 c2 E2 | (G4 F) z F2 | d3 B G2 G2 | %54
w: lov- ed! I|come to watch o'er|thee! * Good|night, good night, be-|
[Q:1/4=108][Q:1/4=108][Q:1/4=108][Q:1/4=108] (G2 e2) c2 A2 | G3 A D2 G2 | G2 z2 z2 ^G2 | %57
w: lov\- * ed! I|come to watch o'er|thee! I|
 A2 z2 z2 ^A2 | B2 z2 z2 B2 | c2 z2 z2 ^D2 | %60
w: come, I|come, I|come, to|
[Q:1/4=108][Q:1/4=108][Q:1/4=108][Q:1/4=108] E2 z2 z2 _E2 | D2 z2 F2 z2 | E z C2 c4- | %63
w: watch, to|watch o'er|thee, I come,|
 c2 (BA) (GF) (ED) | C6 D2 | E2 z2 D4 | C z C2 c4- | c z C2 c4- | c2 z2 z4 | z4 z2 C2 | c8- | %71
w: * I * come * to *|watch, to|watch o'er|thee, Good night,|* Good night,||good|night!|
 c2 z2 z4 |] %72
w: |
V:2
 C2 | C2 z C C2 C2 | ^D4 E2 =D2 | G2 F2 E2 E2 | (E4 D) z D2 |[M:4/4] F3 F D2 B,2 | (C2 G2) A2 F2 | %7
w: Good|night, good night, be-|lov- ed! I|come to watch o'er|thee! * good|night, good night, be-|lov\- * ed! I|
 E3 F D2 D2 | ^C4- C z D2 | !courtesy!=C3 C B,7/2 G,/ | G,4- G, z G,>B, | x8 | x8 | E4 E2 E>^F | %14
w: come to watch o'er|thee, * I|come to watch o'er|thee! * To be|||near thee, to be|
 G4 G z A2 | G2 E2 ^D2 D2 | E4 z2 E>^F | G4 G z G>A | B4 B z c2 | B2 G2 ^F2 F2 | %20
w: near thee, a-|lone is peace for|me, to be|near thee, to be|near thee, a\-|lone is peace for|
 !courtesy!=F4- F z G2 | F4- F z F2 | F4 F z"^rall." F2 | F2 F2 F2 F2 | F6"^a tempo" C2 | %25
w: me! * Good|night, * be-|lov- ed! I|come to watch o'er|thee! Good|
 C2 z C C2 C2 | ^D4 E2 =D2 | G2 F2 E2 E2 | (E4 D) z D2 | F3 F D2 B,2 | (C2 G2) A2 F2 | E3 F D2 D2 | %32
w: night, good night, be-|lov- ed! I|come to watch o'er|thee! * good|night, good night, be-|lov\- * ed! I|come to watch o'er|
 ^C4- C z D2 | !courtesy!=C3 C B,7/2 G,/ | G,4- G, z C2 | C3 D E2 F2 | E4 D2 (E>C) | %37
w: thee! * I|come to watch o'er|thee! * Thine|eyes are stars of|morn- ing, Thy *|
 B,2 B,2 A,2 ^G,2 | A,4 z4 | z8 | z4 z2 C2 | C3 C _B,2 B,2 | C4 z4 | z2 C2 C2 C2 | C2 B,2 z4 | %45
w: lips are crim- son|flowers,||thy|lips are crim- son|flowers.|Good night, be-|lov- ed!|
 z2 _E2 E2 E2 | D2- D z z2"^molto rall." G>G | G2 G2 G2 G2 | G6"^a tempo" C2 | C3 C C2 C2 | %50
w: the wea- ry|hours. * while I|count the wea- ry|hours. Good|night, good night, be-|
 ^D4 E2 =D2 | G2 F2 E2 E2 | (E4 D) z D2 | F3 F D2 B,2 | (C2 G2) A2 F2 | E3 F D2 D2 | E2 z2 z2 E2 | %57
w: lov- ed! I|come to watch o'er|thee! * Good|night, good night, be-|lov\- * ed! I|come to watch o'er|thee! I|
 F2 z2 z2 ^F2 | G2 z2 z2 ^G2 | A2 z2 z2 C2 | C2 z2 z2 C2 | B,2 z2 B,2 z2 | C2 z2 z2 C2 | C2 z2 z4 | %64
w: come, I|come, I|come, to|watch, to|watch o'er|thee, I|come,|
 z2 E2 F2 ^F2 | G2 z2 !courtesy!=F4 | E2 z2 z2 _B2 | A2 z2 z2 _A2 | G2 z2 z2 G2 | ^F2 z2 z2 =F2 | %70
w: I come to|watch o'er|thee. Good|night, good|night, good|night, good|
 E8- | E2 z2 z4 |] %72
w: night!||
V:3
 G2 | G2 z G A2 G2 | ^F4 G2 B2 | c2 d2 c2 _B2 | A4- A z _A2 |[M:4/4][K:treble-8] G3 G B2 d2 | %6
w: Good|night, good night, be-|lov- ed! I|come to watch o'er|thee! * good|night, good night, be-|
 c4 c2 c2 | c3 c B2 B2 | _B4- B z A2 | G3 A F7/2 E/ | E4- E z z2 | x8 | x8 | z4 z2 G>A | %14
w: lov- ed! I|come to watch o'er|thee, * I|come to watch o'er|thee! *|||To be|
 B4 B z e2 | e2 B2 B2 A2 | G4 z4 | z4 z2 B>c | d4 d z g2 | g2 d2 d2 c2 | B4- B z e2 | d4- d z c2 | %22
w: near thee, a-|lone is peace for|me,|to be|near thee, a\-|lone is peace for|me! * Good|night, * be-|
 B4 B z"^rall." c2 | B2 c2 B2 c2 | B6"^a tempo" G2 | G2 z G A2 G2 | ^F4 G2 B2 | c2 d2 c2 _B2 | %28
w: lov- ed! I|come to watch o'er|thee! Good|night, good night, be-|lov- ed! I|come to watch o'er|
 A4- A z _A2 | G3 G B2 d2 | c4 c2 c2 | c3 c B2 B2 | _B4- B z A2 | G3 A F7/2 E/ | E4- E z A2 | %35
w: thee! * good|night, good night, be-|lov- ed! I|come to watch o'er|thee! * I|come to watch o'er|thee! * Thine|
 A3 B c2 d2 | c4 B2 (c>A) | ^G2 (A>F) E2 E2 | E4 z4 | z8 | z4 z2 _A2 | _A3 A G2 G2 | _A4 z2 (A>G) | %43
w: eyes are stars of|morn- ing, Thy *|lips are * crim- son|flowers,||thy|lips are crim- son|flowers. Good *|
 ^F6 F2 | G2 G2 z4 | z2 A2 A2 A2 | B2- B z z2"^molto rall." G>G | G2 G2 G2 G2 | G6"^a tempo" G2 | %49
w: night, be-|lov- ed!|the wea- ry|hours, * while I|count the wea- ry|hours. Good|
 G3 G A2 G2 | ^F4 G2 B2 | c2 d2 c2 _B2 | A4- A z _A2 | G3 G B2 d2 | c4 c2 c2 | c3 c B2 B2 | %56
w: night, good night, be-|lov- ed! I|come to watch o'er|thee! * Good|night, good night, be-|lov- ed! I|come to watch o'er|
 c z G2 c4- | c2 A2 d4- | d2 B2 e4- | e2 (fe) (dc) (BA) | G6 A2 | B4 d4 | c2 z2 z2 ^G2 | A2 z2 z4 | %64
w: thee! I come,|* I come,|* I come,|* I * come * to *|watch, to|watch o'er|thee, I|come,|
 z2 c2 c2 c2 | c2 z2 B4 | c2 z2 z2 g2 | ^f2 z2 z2 =f2 | e2 z2 z2 _B2 | A2 z2 z2 _A2 | G8- | %71
w: I come to|watch o'er|thee. Good|night, good|night, good|night, good|night!|
 G2 z2 z4 |] %72
w: |
V:4
 C,2 | C,2 z C, C,2 C,2 | C,4 C,2 F,2 | E,2 ^G,2 A,2 ^C,2 | D,4- D, z C,2 | %5
w: Good|night, good night, be-|lov- ed! I|come to watch o'er|thee! * good|
[M:4/4] B,,3 D, F,2 F,2 | (E,2 C,2) F,2 F,2 | G,3 G, G,2 F,2 | x2 x2 x2 x2 | E,4- E, z F,2 | %10
w: night, good night, be-|lov- * ed! I|come to watch o'er||thee, * I|
 x2 x2 x2 x2 | G,3 G, G,,7/2 C,/ | C,4- C, z z2 | z4 z2 E,>^F, | G,4 G, z A,2 | B,2 B,2 B,,2 B,,2 | %16
w: |come to watch o'er|thee! *|To be|near thee, a-|lone is peace for|
 E,4 z4 | z4 z2 G,>A, | B,4 B, z C2 | D2 D2 D,2 D,2 | G,4- G, z z2 | z2 G,2 [G,,G,]2 z2 | %22
w: me,|to be|near thee, a\-|lone is peace for|me! *|Good night,|
 z2 G,2 [G,,G,]2 z2 | z8 | z4 z2"^a tempo" C,2 | C,2 z C, C,2 C,2 | C,4 C,2 F,2 | %27
w: good night!||Good|night, good night, be-|lov- ed! I|
 E,2 ^G,2 A,2 ^C,2 | D,4- D, z C,2 | B,,3 D, F,2 F,2 | (E,2 C,2) F,2 F,2 | G,3 G, G,2 F,2 | %32
w: come to watch o'er|thee! * good|night, good night, be-|lov\- * ed! I|come to watch o'er|
 E,4- E, z F,2 | G,3 G, G,,7/2 C,/ | C,4- C, z z2 | z8 | z8 | z2 D, z E, z E, z | A,,4 z2 C,2 | %39
w: thee! * I|come to watch o'er|thee! *|||are crim- son|flowers. Thine|
 _A,3 G, F,2 G,2 | F,4 _E,2 E,2 | _E,3 E, E,2 E,2 | [_A,,_E,]4 z4 | z8 | z4 z2 [_A,,_A,]>[G,,G,] | %45
w: eyes are stars of|morn- ing, thy|lips are crim- son|flowers.||While I|
 [^F,,^F,]2 [F,,F,]2 [F,,F,]2 [F,,F,]2 | [G,,G,]2- [G,,G,] z z2"^molto rall." G,>G, | %47
w: count the wea- ry|hours, * while I|
 G,2 G,2 G,2 G,2 | G,6"^a tempo" C,2 | C,3 C, C,2 C,2 | C,4 C,2 F,2 | E,2 ^G,2 A,2 ^C,2 | %52
w: count the wea- ry|hours. Good|night, good night, be-|lov- ed! I|come to watch o'er|
 D,4- D, z C,2 | B,,3 D, F,2 F,2 | (E,2 C,2) F,2 F,2 | G,3 G, G,2 F,2 | E,2 z2 z2 C,2 | %57
w: thee! * Good|night, good night, be-|lov\- * ed! I|come to watch o'er|thee! I|
 F,2 z2 z2 D,2 | G,2 z2 z2 E,2 | A,2 z2 z2 ^F,2 | G,2 z2 z2 G,2 | G,2 z2 ^G,2 z2 | A,2 z2 z2 E,2 | %63
w: come, I|come, I|come, to|watch, to|watch o'er|thee, I|
 F,2 z2 z4 | z2 _B,2 A,2 _A,2 | G,2 z2 G,4 | C,2 z2 z4 | z8 | z2 C2 C,4- | C,2 C2 C,4- | C,8 | %71
w: come,|I come to|watch o'er|thee.||Good night,|* good night!||
 C,2 z2 z4 |] %72
w: |

